icons/Electrical_Power.svg

<svg width="48" height="48" viewBox="0 0 48 48" fill="currentColor" xmlns="http://www.w3.org/2000/svg">
<path d="M38.7784 9.20627C35.0661 5.55078 29.6128 3.76469 23.0691 4.02485C17.8312 4.02485 12.9617 6.17342 9.35493 10.0715C7.4244 12.1693 5.95944 14.64 5.0535 17.3259C4.14756 20.0119 3.82053 22.8541 4.09326 25.6713C5.00388 35.0695 13.3925 42.9476 23.6054 43.997C23.6782 44.0045 23.7517 43.9978 23.8219 43.9773C23.892 43.9569 23.9573 43.923 24.0142 43.8777C24.071 43.8323 24.1182 43.7764 24.1531 43.7131C24.188 43.6499 24.2098 43.5804 24.2174 43.5088C24.225 43.4373 24.2182 43.3649 24.1974 43.2959C24.1766 43.2269 24.1422 43.1626 24.0961 43.1066C24.05 43.0507 23.9932 43.0043 23.9289 42.97C23.8646 42.9357 23.794 42.9141 23.7213 42.9067C14.0239 41.9113 6.06453 34.4556 5.20294 25.569C4.94463 22.9037 5.25375 20.2146 6.11058 17.6734C6.96741 15.1322 8.35315 12.7946 10.1794 10.8097C13.5723 7.14101 18.1491 5.12106 23.0914 5.12106C29.3454 4.86967 34.5046 6.5476 37.9911 9.98239C41.3691 13.3105 43.1012 18.182 42.865 23.6748C42.1371 32.2574 36.9378 35.4612 32.7249 35.5957C30.0317 35.5957 27.9193 34.7494 26.4472 33.0802C24.7997 31.2094 24.4313 28.8357 24.4922 27.7205C27.6801 27.3843 29.7212 24.5488 29.7064 20.468H30.1996C30.3473 20.468 30.489 20.4102 30.5935 20.3075C30.6979 20.2047 30.7566 20.0653 30.7566 19.9199C30.7566 19.7745 30.6979 19.6351 30.5935 19.5323C30.489 19.4295 30.3473 19.3718 30.1996 19.3718H27.34V14.2196C27.34 14.0742 27.2813 13.9348 27.1768 13.832C27.0723 13.7292 26.9306 13.6715 26.7829 13.6715C26.6352 13.6715 26.4935 13.7292 26.389 13.832C26.2845 13.9348 26.2258 14.0742 26.2258 14.2196V19.3718H21.2494V14.2196C21.2494 14.0742 21.1907 13.9348 21.0862 13.832C20.9818 13.7292 20.8401 13.6715 20.6923 13.6715C20.5446 13.6715 20.4029 13.7292 20.2984 13.832C20.1939 13.9348 20.1353 14.0742 20.1353 14.2196V19.3718H17.2757C17.1279 19.3718 16.9862 19.4295 16.8817 19.5323C16.7773 19.6351 16.7186 19.7745 16.7186 19.9199C16.7186 20.0653 16.7773 20.2047 16.8817 20.3075C16.9862 20.4102 17.1279 20.468 17.2757 20.468H28.5952C28.6012 23.5228 27.2464 26.5454 24.0718 26.6798C21.7322 26.8319 20.4026 25.3337 19.697 24.0446C19.663 23.9799 19.6163 23.9226 19.5596 23.876C19.5028 23.8293 19.4372 23.7942 19.3665 23.7727C19.2959 23.7513 19.2216 23.7439 19.148 23.751C19.0744 23.7581 19.0029 23.7795 18.9378 23.8141C18.8727 23.8486 18.8153 23.8956 18.7688 23.9522C18.7224 24.0088 18.6879 24.074 18.6673 24.1439C18.6467 24.2137 18.6404 24.287 18.6489 24.3593C18.6574 24.4315 18.6804 24.5014 18.7166 24.5649C19.8099 26.5629 21.4158 27.6489 23.3751 27.7658C23.3246 29.2347 23.8431 31.7984 25.6064 33.7979C27.2999 35.7185 29.6945 36.6919 32.7428 36.6919C37.4325 36.5428 43.1888 33.0671 43.9776 23.742C44.2272 17.9175 42.3807 12.7551 38.7784 9.20773V9.20627Z" fill="#3D3D3D" stroke="#3D3D3D" stroke-width="0.25"/>
</svg>

<svg xmlns="http://www.w3.org/2000/svg" width="16" height="16" fill="currentColor" class="si si-Electrical_Power" viewBox="0 0 16 16">
  <path stroke="#3D3D3D" stroke-width=".25" d="M38.778 9.206c-3.712-3.655-9.165-5.441-15.709-5.181-5.238 0-10.107 2.148-13.714 6.047a20.3 20.3 0 0 0-4.302 7.254 20.1 20.1 0 0 0-.96 8.345c.91 9.398 9.3 17.277 19.512 18.326a.56.56 0 0 0 .548-.284.54.54 0 0 0-.224-.743.6.6 0 0 0-.208-.063c-9.697-.996-17.656-8.451-18.518-17.338-.258-2.665.05-5.354.908-7.896a19.2 19.2 0 0 1 4.068-6.863c3.393-3.67 7.971-5.69 12.912-5.69 6.254-.251 11.414 1.427 14.9 4.861 3.378 3.329 5.11 8.2 4.874 13.693-.728 8.582-5.927 11.786-10.14 11.92-2.693 0-4.806-.846-6.278-2.515-1.647-1.87-2.016-4.244-1.955-5.36 3.188-.336 5.23-3.171 5.214-7.252h.494a.56.56 0 0 0 .393-.16.544.544 0 0 0 0-.776.56.56 0 0 0-.393-.16h-2.86V14.22a.54.54 0 0 0-.163-.388.56.56 0 0 0-.788 0 .54.54 0 0 0-.163.388v5.152h-4.977V14.22a.54.54 0 0 0-.163-.388.56.56 0 0 0-.788 0 .54.54 0 0 0-.163.388v5.152h-2.86a.56.56 0 0 0-.393.16.544.544 0 0 0 0 .776c.104.102.246.16.394.16h11.32c.005 3.055-1.35 6.077-4.524 6.212-2.34.152-3.67-1.346-4.375-2.635a.55.55 0 0 0-.33-.272.57.57 0 0 0-.598.18.55.55 0 0 0-.052.612c1.093 1.998 2.699 3.084 4.658 3.2-.05 1.47.468 4.033 2.231 6.033 1.694 1.92 4.089 2.894 7.137 2.894 4.69-.15 10.446-3.625 11.235-12.95.25-5.824-1.597-10.987-5.2-14.534z"/>
</svg>
